dist/img/svg/icon-write.svg

<svg width="15" height="16" viewBox="0 0 15 16" fill="none" xmlns="http://www.w3.org/2000/svg">
<path d="M2.68732 8.92454C2.68732 8.41413 2.69272 7.90371 2.68462 7.3933C2.68192 7.20548 2.74312 7.06288 2.88082 6.93071C5.22896 4.66644 7.5753 2.40218 9.91624 0.131835C10.0899 -0.0368545 10.2105 -0.0481585 10.386 0.124009C11.1277 0.850068 11.8792 1.56569 12.6262 2.2874C12.9835 2.63261 13.3327 2.98651 13.6936 3.32823C14.0023 3.61953 14.0086 3.61431 13.6891 3.92386C11.845 5.7064 9.99994 7.48808 8.15581 9.27062C7.6788 9.73147 7.1991 10.1897 6.72659 10.6549C6.58259 10.7966 6.42688 10.8636 6.21988 10.8619C5.17406 10.8549 4.12824 10.8488 3.08333 10.861C2.76922 10.8645 2.67112 10.7497 2.68192 10.4575C2.69992 9.94798 2.68732 9.4367 2.68732 8.92628C2.68552 8.92454 2.68732 8.92454 2.68732 8.92454ZM5.17676 9.21236C5.40987 9.15584 5.73117 9.32018 5.98948 9.06976C7.80661 7.31069 9.62644 5.55337 11.449 3.79865C11.5948 3.65779 11.5903 3.55953 11.4445 3.42388C11.0962 3.10042 10.7443 2.77869 10.4239 2.43088C10.2177 2.20741 10.0962 2.24045 9.89284 2.43783C8.21611 4.07255 6.53849 5.70467 4.83746 7.31504C4.48105 7.65242 4.30195 7.98632 4.33795 8.47586C4.39735 9.2854 4.19125 9.21323 5.17676 9.21236Z" fill="#000000"/>
<path d="M7.54021 11.8044C9.87755 11.8044 12.2149 11.8044 14.5522 11.8044C14.9761 11.8044 14.9905 11.8175 14.9941 12.2209C14.9968 12.4922 14.9842 12.7644 14.9986 13.0348C15.0139 13.3139 14.9014 13.4165 14.6062 13.4139C13.2013 13.4035 11.7973 13.4104 10.3924 13.4104C7.1001 13.4104 3.80694 13.4096 0.514686 13.4078C0.00257729 13.4078 -0.00192279 13.4017 0.00167727 12.8922C0.0034773 12.6531 0.0160775 12.414 0.00167727 12.1757C-0.015423 11.8948 0.0970789 11.7975 0.392284 11.7992C2.08881 11.8096 3.78624 11.8035 5.48277 11.8035C6.16948 11.8044 6.8553 11.8044 7.54021 11.8044Z" fill="#000000"/>
<path d="M5.52417 14.3566C7.1982 14.3566 8.87223 14.3566 10.5463 14.3566C10.9882 14.3566 11.0062 14.3713 11.0089 14.7887C11.0107 15.06 10.9981 15.3322 11.0134 15.6026C11.0305 15.9 10.8973 16.0017 10.5976 16C9.19353 15.9922 7.78861 15.9982 6.38458 15.9982C4.45225 15.9982 2.51991 15.9974 0.587577 15.9956C-0.000133706 15.9948 -0.000133693 15.993 0.00436639 15.4087C0.00616642 15.1809 0.0187666 14.9522 0.00256636 14.7252C-0.017234 14.4366 0.114168 14.3522 0.400374 14.3531C2.1077 14.3618 3.81594 14.3574 5.52327 14.3574L5.52417 14.3566Z" fill="#000000"/>
</svg>

<svg width="15" height="16" viewBox="0 0 15 16" fill="none" xmlns="http://www.w3.org/2000/svg"><path d="M2.687 8.925c0-.51.006-1.021-.002-1.532a.586.586 0 01.196-.462C5.229 4.666 7.575 2.402 9.916.13c.174-.168.294-.18.47-.007.742.726 1.493 1.442 2.24 2.163.357.346.707.7 1.068 1.041.308.292.315.286-.005.596L8.156 9.27c-.477.46-.957.919-1.43 1.384a.667.667 0 01-.506.207 170.804 170.804 0 00-3.137-.001c-.314.003-.412-.111-.401-.404.018-.509.005-1.02.005-1.53v-.002zm2.49.287c.233-.056.554.108.812-.142a2464.67 2464.67 0 015.46-5.271c.146-.141.141-.24-.005-.375-.348-.324-.7-.645-1.02-.993-.206-.224-.328-.19-.531.007a478.204 478.204 0 01-5.056 4.877c-.356.337-.535.671-.499 1.16.06.81-.147.738.839.737zm2.363 2.592h7.012c.424 0 .439.014.442.417.003.271-.01.543.005.814.015.279-.098.381-.393.379-1.405-.01-2.809-.004-4.214-.004-3.292 0-6.585 0-9.877-.002-.512 0-.517-.006-.513-.516.001-.239.014-.478 0-.716-.017-.281.095-.379.39-.377 1.697.01 3.394.005 5.09.005H7.54zm-2.016 2.553h5.022c.442 0 .46.014.463.432.002.271-.01.543.004.814.018.297-.116.399-.415.397-1.404-.008-2.81-.002-4.213-.002-1.933 0-3.865 0-5.797-.002C0 15.995 0 15.993.004 15.409c.002-.228.015-.457-.001-.684-.02-.288.111-.373.397-.372 1.708.009 3.416.004 5.123.004h.001z" fill="#000"/></svg>
